svgs/thin/chess-board.svg

<svg xmlns="http://www.w3.org/2000/svg" viewBox="0 0 448 512"><!-- Font Awesome Pro 6.0.0-alpha2 by @fontawesome - https://fontawesome.com License - https://fontawesome.com/license (Commercial License) --><path d="M400 32H48C21.49 32 0 53.49 0 80V432C0 458.51 21.49 480 48 480H400C426.51 480 448 458.51 448 432V80C448 53.49 426.51 32 400 32ZM432 432C432 449.645 417.645 464 400 464H48C30.355 464 16 449.645 16 432V80C16 62.355 30.355 48 48 48H400C417.645 48 432 62.355 432 80V432ZM376 88H72C63.188 88 56 95.172 56 104V408C56 416.828 63.188 424 72 424H376C384.812 424 392 416.828 392 408V104C392 95.172 384.812 88 376 88ZM120 408H72V360H120V408ZM120 344H72V296H120V344ZM120 280H72V232H120V280ZM120 216H72V168H120V216ZM120 152H72V104H120V152ZM184 408H136V360H184V408ZM184 344H136V296H184V344ZM184 280H136V232H184V280ZM184 216H136V168H184V216ZM184 152H136V104H184V152ZM248 408H200V360H248V408ZM248 344H200V296H248V344ZM248 280H200V232H248V280ZM248 216H200V168H248V216ZM248 152H200V104H248V152ZM312 408H264V360H312V408ZM312 344H264V296H312V344ZM312 280H264V232H312V280ZM312 216H264V168H312V216ZM312 152H264V104H312V152ZM376 407.984C376 408 376 408 376 408H328V360H376V407.984ZM376 344H328V296H376V344ZM376 280H328V232H376V280ZM376 216H328V168H376V216ZM376 152H328V104H376V152Z"/></svg>

<svg xmlns="http://www.w3.org/2000/svg" viewBox="0 0 448 512"><!--! Font Awesome Pro 6.3.0 by @fontawesome - https://fontawesome.com License - https://fontawesome.com/license (Commercial License) Copyright 2023 Fonticons, Inc. --><path d="M400 32h-352C21.49 32 0 53.49 0 80v352C0 458.5 21.49 480 48 480h352c26.51 0 48-21.49 48-48v-352C448 53.49 426.5 32 400 32zM432 432c0 17.64-14.36 32-32 32h-352c-17.64 0-32-14.36-32-32v-352c0-17.64 14.36-32 32-32h352c17.64 0 32 14.36 32 32V432zM376 88h-304c-8.812 0-16 7.172-16 16v304c0 8.828 7.188 16 16 16h304c8.812 0 16-7.172 16-16v-304C392 95.17 384.8 88 376 88zM120 408h-48v-48h48V408zM120 344h-48v-48h48V344zM120 280h-48v-48h48V280zM120 216h-48v-48h48V216zM120 152h-48v-48h48V152zM184 408h-48v-48h48V408zM184 344h-48v-48h48V344zM184 280h-48v-48h48V280zM184 216h-48v-48h48V216zM184 152h-48v-48h48V152zM248 408h-48v-48h48V408zM248 344h-48v-48h48V344zM248 280h-48v-48h48V280zM248 216h-48v-48h48V216zM248 152h-48v-48h48V152zM312 408h-48v-48h48V408zM312 344h-48v-48h48V344zM312 280h-48v-48h48V280zM312 216h-48v-48h48V216zM312 152h-48v-48h48V152zM376 407.1C376 408 376 407.1 376 407.1L328 408v-48h48V407.1zM376 344h-48v-48h48V344zM376 280h-48v-48h48V280zM376 216h-48v-48h48V216zM376 152h-48v-48h48V152z"/></svg>
